X:1
T: 1814
M:3/4     %Meter
L:1/8     %
K:G
V:1
"G"dc B2 G2 |"D"c3/2B/ A2 D2 |"G"G3/2F/ GA Bc |dd/e/ dc Bc |
dc B2 G2 |"D"c3/2B/ A2 D2 |"G"G3/2F/ GA Bc |"D"AF "G"G4 :|
|:"G"B,[B,-D-][DB,][B,-D-][B,D][DB,] |"C"C[C-E-][EC][C-E-][CE]F |"G"G3/2A/ BA "D"GF |"G"G2 D/E/D/C/ "D"B,A, |
"G"B,[B,-D-][DB,][B,-D-][DB,][B,D] |"C"C[E-C-][CE][C-E-][EC]F |"G"G,>G BA "D"GF |"G"G2 G4 :|
V:2
BA G2 D2 |A3/2G/ F2 A,2 |D3 F GA |BB/c/ BA GA |
BA G2 D2 |A3/2G/ F2 A,2 |D3 F GA |FD [B,4D4] :|
|:B,[D-G,-][G,D][G,-D-][G,D][DG,] |C[G,-E-][EG,][G,-E-][G,E]A, |B,3/2F/ GF DA, |B,2 B,/C/B,/A,/ G,A, |
B,[G,-D-][DG,][G,-D-][DG,][G,D] |C[E-G,-][G,E][G,-E-][G,E]A, |B,3/2F/ GF DA, |[B,2D2] [B,4D4] :|
     %End of file
